X:1
T:Ramoth (Calkin), 77.77 D
T:John Baptiste Calkin, 1867
T:Ramoth (Calkin), 77.77 D
T:Public Domain
C:John Baptiste Calkin, 1867
Z:Public Domain
%%score ( 1 2 ) ( 3 4 )
L:1/8
M:4/4
K:D
V:1 treble 
V:2 treble 
V:3 bass 
V:4 bass 
V:1
 [DA]3 [DA] [Dd]2 [Dd]2 | [Dc]2 [DB]2 [EA]4 | [DF]3 [DF] [CA]2 [B,D]2 | [A,D]2 [CE]2 D4 | %4
 [A,A]3 [A,A] [Dd]2 [Fd]2 | [^Ec]2 [^GB]2 [FA]4 | F3 F [DA]2 D2 | D2 [CE]2 D4 | %8
 [DF]2 [FB]2 [FB]2 [F^A]2 x | [FB]2 [EG]2 [CF]4 | F2 z E [FB]2 [F^A]2 | [FB]2 [^Gd]2 A2 =G2 | %12
 [Fd]3 [Dd] [DF]2 DE | [FA]2 [CF]2 D4 | D3 D [DG]2 [DF]2 | [CF]2 [CE]2 D4 |] %16
V:2
 x8 | x8 | x8 | x4 D4 | x8 | x8 | F3 F x D2 x | D2 D4 x2 | x9 | x8 | D3 B2 x3 | x4 c4 | x6 B2 | %13
 x4 D4 | D3 D x4 | x4 D4 |] %16
V:3
 [D,F,]3 [D,F,] [B,,F,]2 [B,,F,]2 | [A,,F,]2 [G,,G,]2 [C,E,]4 | [D,A,]3 [D,A,] [F,,A,]2 [G,,G,]2 | %3
 [A,,F,]2 [A,,G,]2 [D,F,]4 | [F,A,]3 [F,A,] [B,,A,]2 [B,,A,]2 | [C,^G,]2 [^E,C]2 [F,C]4 | %6
 [D,=C]3 [D,C] [G,,C]2 [G,,B,]2 | [F,,A,]2 [A,,G,]2 [D,F,]4 | [B,,B,]2 [D,B,]2 C2 z E, x | %9
 [D,B,]2 [E,B,]2 [F,^A,]4 | D,2 z C [F,D]2 [F,C]2 | [B,D]2 [B,D]2 [A,E]4 | %12
 [B,D]3 [B,D] [A,C]2 B,C | [F,D]2 [A,,A,]2 [B,,F,]4 | [A,,F,]3 [A,,F,] [A,,B,]2 [A,,A,]2 | %15
 [A,,A,]2 [A,,G,]2 [D,F,]4 |] %16
V:4
 x8 | x8 | x8 | x8 | x8 | x8 | x8 | x8 | x4 F,3 C2 | x8 | B,3 G,2 x3 | x8 | x6 G,2 | x8 | x8 | %15
 x8 |] %16

